X:10
T:Lonesome Boatman, The
R:slow air
C:Finbar Furey
Z:id:hn-slowair-10
M:4/4
L:1/8
Q:1/4=100
K:Bm
fe | f4-f gfe | f B-B4 (3cde | d6 cB | A F-F6- | F6 ||
fe | f4-f gfe | f B-B4 (3cde | d6 e/f/d/B/ | c6 FA | B8- | B6 ||
f2 | ^g8- | ^g6 e2 | f8- | f6 f2 | ^g8- | ^g6 e2 | f6
f/e/d/c/ | d6 e/d/c/d/ | c6 B2 | A F-F6- | F6 ||
fe | f4-f gfe | f B-B4 (3cde | d6 e/f/d/B/ | c6 FA | B8- | B6 ||

